X:1
T:Paal paa Haugen
T:Paal paa Haugen
T:National- og Selskabs-Sange (1886)
T:Folkemelodi, arr. af Knud Henderson
C:Folkemelodi, arr. af Knud Henderson
%%score [ 1 2 3 4 ]
L:1/8
Q:1/4=100
M:2/4
K:G
V:1 treble-8 nm="Tenor"
V:2 treble-8 nm="Tenor"
V:3 bass nm="Bass"
V:4 bass nm="Bass"
V:1
"^Allegretto e leggiero" G2 G B | d2 (d B) | e2 e c | d2 d2 | c2 c A | B2 B G | A2 (A F) | G4 :| %8
w: 1.Paal si- ne|Hø- no paa|Hau- gann ut-|slep- te,|Hø- nunn saa|lett o- ver|Hau- gann _|sprang;|
w: Paal kun- ne|væl paa _|Hø- nunn for-|ne- ma,|Ræ- ven va|u- te mæ|Rum- pa saa|lang;|
 d2 z B | G2 (GB) | A2 A G | F2 D2 | d2 z B | G2 (GB) | A2 A G | F2 D2 | G2 (GB) | d3 d | e2 e g | %19
w: Kluk, Kluk,|Kluk, sa' _|Hø- na paa|Hau- gom;|Kluk, kluk,|kluk! sa' _|Hø- na paa|Hau- gom;|Paal han _|sprang aa|vreng- de mæ|
w: |||||||||||
 d2 d2 | c2 c A | B B B G | A2 A F | G4 |] %24
w: Au- gom;|"Naa tor' e|in- kje ko- maa|heim aat 'n|Mor!"|
w: |||||
V:2
 D2 D G | B2 (B B) | c2 c c | B2 B2 | A2 A A | A2 G G | G2 (F D) | D4 :| B2 z G | D2 (DG) | %10
w: 1.Paal si- ne|Hø- no paa|Hau- gann ut-|slep- te,|Hø- nunn saa|lett o- ver|Hau- gann _|sprang;|Kluk, Kluk,|Kluk, sa' _|
w: Paal kun- ne|væl paa _|Hø- nunn for-|ne- ma,|Ræ- ven va|u- te mæ|Rum- pa saa|lang;|||
 E2 D E | F2 D2 | B2 z G | D2 (DG) | E2 D E | F2 D2 | D2 (DG) | B3 B | c2 c c | B2 B2 | G2 A F | %21
w: Hø- na paa|Hau- gom;|Kluk, kluk,|kluk! sa' _|Hø- na paa|Hau- gom;|Paal han _|sprang aa|vreng- de mæ|Au- gom;|"Naa tor' e|
w: |||||||||||
 F F G G | G2 F D | D4 |] %24
w: in- kje ko- maa|heim aat 'n|Mor!"|
w: |||
V:3
 B,,2 B,, D, | G,2 (G, G,) | G,2 G, G, | G,2 G,2 | (G,F,) E, F, | F,2 E, E, | E,2 (D, D,) | B,,4 :| %8
w: 1.Paal si- ne|Hø- no paa|Hau- gann ut-|slep- te,|Hø- * nunn saa|lett o- ver|Hau- gann _|sprang;|
w: Paal kun- ne|væl paa _|Hø- nunn for-|ne- ma,|Ræ- * ven va|u- te mæ|Rum- pa saa|lang;|
 G,2 z D, | B,,2 (B,,D,) | (D,^C,) B,, C, | D,2 D,2 | G,2 z D, | B,,2 (B,,D,) | (D,^C,) B,, C, | %15
w: Kluk, Kluk,|Kluk, sa' _|Hø- * na paa|Hau- gom;|Kluk, kluk,|kluk! sa' _|Hø- * na paa|
w: |||||||
 D,2 D,2 | B,,2 (B,,D,) | G,3 G, | G,2 G, G, | G,2 G,2 | E,2 D, D, | ^D, D, E, E, | E,2 D, D, | %23
w: Hau- gom;|Paal han _|sprang aa|vreng- de mæ|Au- gom;|"Naa tor' e|in- kje ko- maa|heim aat 'n|
w: ||||||||
 B,,4 |] %24
w: Mor!"|
w: |
V:4
 G,,2 G,, G,, | G,,2 (G,, G,,) | C,2 C, E, | G,2 G,2 | (G,F,) E, F, | ^D,2 E, E, | C,2 (D, D,) | %7
w: 1.Paal si- ne|Hø- no paa|Hau- gann ut-|slep- te,|Hø- * nunn saa|lett o- ver|Hau- gann _|
w: Paal kun- ne|væl paa _|Hø- nunn for-|ne- ma,|Ræ- * ven va|u- te mæ|Rum- pa saa|
 G,,4 :| z G,, G, z | z G,, G, G,, | A,,2 A,, A,, | D,2 D,2 | z G,, G, z | z G,, G, G,, | %14
w: sprang;|Kluk, kluk!|kluk, kluk sa'|Hø- na paa|Hau- gom;|Kluk, kluk!|kluk, kluk sa'|
w: lang;|||||||
 A,,2 A,, A,, | D,2 D,2 | z4 | G, D, B,, G,, | C,2 C, E, | G,2 G,2 | C,2 D, D, | B,, B,, E, E, | %22
w: Hø- na paa|Hau- gom;||Paal han sprang aa|vreng- de mæ|Au- gom;|"Naa tor' e|in- kje ko- maa|
w: ||||||||
 C,2 D, C, | G,,4 |] %24
w: heim aat 'n|Mor!"|
w: ||

